modules/feathericon/icons/watch-alt.svg

<?xml version="1.0" encoding="UTF-8"?>
<svg width="24px" height="24px" viewBox="0 0 24 24" version="1.1" xmlns="http://www.w3.org/2000/svg" xmlns:xlink="http://www.w3.org/1999/xlink">
    <!-- Generator: sketchtool 52.2 (67145) - http://www.bohemiancoding.com/sketch -->
    <title>watch-alt</title>
    <desc>Created with sketchtool.</desc>
    <g id="devices" stroke="none" stroke-width="1" fill="none" fill-rule="evenodd">
        <g id="watch-alt" fill="#000000">
            <path d="M15,6 L16,6 C17.1045695,6 18,6.8954305 18,8 L18,16 C18,17.1045695 17.1045695,18 16,18 L15,18 L15,20 C15,21.1045695 14.1045695,22 13,22 L11,22 C9.8954305,22 9,21.1045695 9,20 L9,18 L8,18 C6.8954305,18 6,17.1045695 6,16 L6,8 C6,6.8954305 6.8954305,6 8,6 L9,6 L9,4 C9,2.8954305 9.8954305,2 11,2 L13,2 C14.1045695,2 15,2.8954305 15,4 L15,6 Z M8,8 L8,16 L16,16 L16,8 L8,8 Z" id="Shape"></path>
        </g>
    </g>
</svg>

<svg width="24" height="24" viewBox="0 0 24 24" xmlns="http://www.w3.org/2000/svg"><path d="M15 6h1a2 2 0 0 1 2 2v8a2 2 0 0 1-2 2h-1v2a2 2 0 0 1-2 2h-2a2 2 0 0 1-2-2v-2H8a2 2 0 0 1-2-2V8a2 2 0 0 1 2-2h1V4a2 2 0 0 1 2-2h2a2 2 0 0 1 2 2v2zM8 8v8h8V8H8z" fill="#000" fill-rule="evenodd"/></svg>
